!!!SOCIAL_FUNCTION:	songs of games played in a ceremonial manner
!!!PDT:	1932
!!!OTL: No_1_Song_of_Mudjikikwawis.krn
!!!REG: Wisconsin
!!!LANG: Non-Tone
!!!LING_GROUP: Algonquin
**kern
*staff1
=1-
*clefF4
*k[b-]
*M3/4
2r
8r
16c\LL
16c\JJ
=2
(4c\
4G\)
16A-\LK
8.A-\J
=3||
*M2/4
2G\
=4
4r
8.G\L
16F\Jk
=5||
*M3/4
2G\
8r
16A\LL
16A\JJ
=6
4A\
8G\
8r
16G\LK
8.G\J
=7
2F\
8.D/L
16C/Jk
=8
2C/
8r
16G\LL
16G\JJ
=9
(4G\
4D\)
16F\LK
8.F\J
=10||
*M2/4
2F\
=11
4r
8F\L
8F\J
=12||
*M3/4
2F\
16D\LK
8.D\J
=13||
*M2/4
4C/
12D\L
12D\
12D\J
=14
4C/
12GG/L
12FF/
12FF/J
=15
2FF/
=16
2FF/
==
*-
